X:6009
T:Shipabout. HSJJ.127
T:Joke,The. HSJJ.127
O:england
M:6/8
L:1/8
S:HSJ Jackson,Wyresdale,Lancs.1823
R:Jig
A:Lancashire
H:1823
K:C
"D in MS"C2c cBc|D2d dcd|E2e ede|F2f fef|ggg gec|aaa afd|Bcd GAB|c3C3:|
|:c2c' c'bc'|"d in MS"B2b bab|A2a aga|G2g gfg|F2f fef|E2e ede|dfe dcB|c
3c3:|]


